icons/svg/cloud-upload_24.svg

<?xml version="1.0" encoding="UTF-8"?>
<svg width="24px" height="24px" viewBox="0 0 24 24" version="1.1" xmlns="http://www.w3.org/2000/svg" xmlns:xlink="http://www.w3.org/1999/xlink">
    <!-- Generator: Sketch 59.1 (86144) - https://sketch.com -->
    <title>cloud-upload_24</title>
    <desc>Created with Sketch.</desc>
    <g id="New-Icon" stroke="none" stroke-width="1" fill="none" fill-rule="evenodd">
        <g id="cloud-upload_24" fill="#171B1F">
            <path d="M17.3481,20 L12.0001,20 L12.0001,10.707 L16.1461,14.854 C16.2441,14.951 16.3721,15 16.5001,15 C16.6281,15 16.7561,14.951 16.8531,14.854 C17.0491,14.658 17.0491,14.342 16.8531,14.146 L11.8541,9.147 C11.8071,9.101 11.7521,9.064 11.6911,9.039 C11.5691,8.988 11.4311,8.988 11.3091,9.039 C11.2471,9.064 11.1921,9.101 11.1461,9.147 L6.1461,14.146 C5.9511,14.342 5.9511,14.658 6.1461,14.854 C6.3421,15.049 6.6581,15.049 6.8531,14.854 L11.0001,10.707 L11.0001,20 L5.5101,20 C3.0231,20 1.0001,17.814 1.0001,15.128 C1.0001,12.61 2.8821,10.515 5.2851,10.358 C5.5591,10.34 5.7671,10.105 5.7521,9.832 C5.7521,9.83 5.7461,9.731 5.7461,9.73 C5.7411,9.65 5.7351,9.571 5.7351,9.49 C5.7351,6.463 8.0901,4 10.9851,4 C13.2981,4 15.3681,5.621 16.0191,7.942 C16.0881,8.186 16.3301,8.339 16.5781,8.301 C16.8931,8.251 17.1581,8.229 17.4111,8.229 C20.4931,8.229 23.0001,10.849 23.0001,14.071 C23.0001,17.285 20.4111,20 17.3481,20 M17.4111,7.229 C17.2331,7.229 17.0471,7.238 16.8511,7.258 C15.9571,4.73 13.6031,3 10.9851,3 C7.5631,3 4.7751,5.87 4.7361,9.414 C2.0441,9.836 0.0001,12.255 0.0001,15.128 C0.0001,18.366 2.4721,21 5.5101,21 L17.3481,21 C20.9531,21 24.0001,17.827 24.0001,14.071 C24.0001,10.298 21.0441,7.229 17.4111,7.229" id="fill"></path>
        </g>
    </g>
</svg>

<svg width="24" height="24" xmlns="http://www.w3.org/2000/svg"><path d="M17.348 20H12v-9.293l4.146 4.147a.502.502 0 00.707 0 .5.5 0 000-.708l-4.999-4.999a.496.496 0 00-.708 0l-5 4.999a.5.5 0 00.707.708L11 10.707V20H5.51C3.023 20 1 17.814 1 15.128c0-2.518 1.882-4.613 4.285-4.77a.5.5 0 00.467-.526l-.006-.102c-.005-.08-.01-.159-.01-.24C5.735 6.463 8.09 4 10.985 4c2.312 0 4.382 1.621 5.033 3.942a.503.503 0 00.56.359c.314-.05.58-.072.832-.072 3.082 0 5.59 2.62 5.59 5.842C23 17.285 20.41 20 17.347 20m.063-12.771c-.178 0-.364.009-.56.029C15.957 4.73 13.603 3 10.985 3c-3.422 0-6.21 2.87-6.249 6.414C2.044 9.836 0 12.255 0 15.128 0 18.366 2.472 21 5.51 21h11.838C20.953 21 24 17.827 24 14.071c0-3.773-2.956-6.842-6.589-6.842" fill="#171B1F" fill-rule="evenodd"/></svg>
